!!!OTL: When Irish Eyes Are Smiling
!!!COM: Ball, Ernest
!!!LAR: Thorne, Frank
!! "When Irish Eyes Are Smiling" by Ernest Ball, arranged by Frank Thorne,
!! from "Close Harmony Classics for Barbershop Quartets" B. Feldman & Co.;
!! copyright 1912 & 1952 by M Witmark & Sons; pp. 8-9; in E- major;
**kern	**kern	**kern	**kern
*Ivox	*Ivox	*Ivox	*Ivox
*M3/4	*M3/4	*M3/4	*M3/4
*E-:	*E-:	*E-:	*E-:
4r	4r	8G	4r
.	.	8A-	.
=1	=1	=1	=1
4E-	4G	4B-	4e-
4AA-	4F	4e-	4c
4AA-	4F#	4c	4e-
=2	=2	=2	=2
2BB-	2G	2B-	2e-
8GG	8B-	8G	8e-
8BB-	8F	8A-	8d
=3	=3	=3	=3
4E-	4G	4B-	4e-
4AA-	4F	4e-	4c
4AA-	4F#	4c	4e-
=4	=4	=4	=4
4BB-	4G	4B-	4e-
4GG	4B-	4G	4e-
4BB-	4A-	4F	4d
=5	=5	=5	=5
4BB-	4G	4E-	4d-
4BB-	4G	4F	4d-
4E-	4B-	4G	4d-
=6	=6	=6	=6
4E-	4B-	4G	4d-
4BB-	4G	4F	4d-
4BB-	4G	4E-	4d-
=7	=7	=7	=7
[2.E-	[2.G	[2.B-	2e-
.	.	.	4dn
=8	=8	=8	=8
4E-]	4G]	4B-]	4d-
4r	4r	4r	4r
4r	4r	8F	4r
.	.	8G	.
=9	=9	=9	=9
4BB-	4F	4A-	4dn
4BB-	4B-	4G	4d
4BB-	4A-	4F	4d
=10	=10	=10	=10
4BBn	4F	4A-	4d
4BB	4F	4G	4d
4BB	4A-	4F	4d
=11	=11	=11	=11
4C	4G	4E-	4c
4D	4G	4F	4bn
4C	4E-	4G	4c
=12	=12	=12	=12
4En	4G	4B-	4d-
4E	4G	4An	4d-
4E	4B-	4G	4d-
=13	=13	=13	=13
4C	4An	4F	4e-
4C	4A	4G	4e-
4C	4F	4An	4e-
=14	=14	=14	=14
4F	4An	4c	4e-
4F	4A	4d	4f
4C	4A	4F	4e-
=15	=15	=15	=15
2.BB-	2F	[2.B-	[2.d
.	4G	.	.
=16	=16	=16	=16
4F	4A-	4B-]	4d]
2r	2r	4r	4r
.	.	8G	4r
.	.	8A-	.
=17	=17	=17	=17
4E-	4G	4B-	4e-
4AA-	4F	4e-	4c
4AA-	4F#	4c	4e-
=18	=18	=18	=18
4BB-	4G	4B-	4e-
4GG	4B-	4G	4e-
4BB-	4F	4A-	4d
=19	=19	=19	=19
4E-	4G	4B-	4e-
4AA-	4F	4e-	4c
4AA-	4F#	4c	4e-
=20	=20	=20	=20
4BB-	4G	4B-	4e-
4GG	4B-	4G	4e-
4BB-	4A-	4F	4d
=21	=21	=21	=21
4BB-	4G	4E-	4d-
4BB-	4G	4F	4d-
4E-	4B-	4G	4d-
=22	=22	=22	=22
4E-	4B-	4G	4d-
4BB-	4G	4F	4d-
4BB-	4G	4E-	4d-
=23	=23	=23	=23
2AA-	[2.A-	[2.c	2.e-
4E-	.	.	.
=24	=24	=24	=24
4A-	4A-]	4c]	4e-
2r	2r	4r	4r
.	.	8c	4r
.	.	8d	.
=25	=25	=25	=25
4E-	4A-	4e-	4c
4E-	4A-	4c	4e-
4F	4A-	4c	4d
=26	=26	=26	=26
2F#;	2An;	2e-;	2c;
4r	4r	8d	4r
.	.	8c	.
=27	=27	=27	=27
4D	4G	4d	4B-
4En	4G	4B-	4d
4F#	4An	4c	4d
=28	=28	=28	=28
4G	4G	2B-	2d
4Fn	4G	.	.
4r	4r	8c	4r
.	.	8B-	.
=29	=29	=29	=29
2C	2An	4F	2e-
.	.	4G	.
4C	4F	4An	4e-
=30	=30	=30	=30
2F	2An	2c	2e-
4F	4A	4d	4f
=31	=31	=31	=31
2.BB-	2F	[2.B-	[2.d
.	4G	.	.
=32	=32	=32	=32
2F	2A-	2B-]	2d]
4F;	4A-;	4B-;	4d;
=33	=33	=33	=33
2E-	2B-	2G	2e-
4E-	4B-	4G	4e-
=34	=34	=34	=34
2BB-	2A-	2F	2d
4AA-	4G-	4E-	4c
=35	=35	=35	=35
4E-	4B-	4G	4e-
[2E-	[2G	[2B-	4e-
.	.	.	4d
=36	=36	=36	=36
4E-]	4G]	4B-]	4d-
4E-	4B-	4G	4d-
4BB-	4G	4E-	4d-
=37	=37	=37	=37
2AA-	2E-	2A-	2c
4AA-	4A-	4c	4e-
=38	=38	=38	=38
2AA-	2A-	2e-	2c
4AAn	4G-	4c	4e-
=39	=39	=39	=39
[2.BB-	[2.Gn	[2.B-	[2.e-
=40	=40	=40	=40
4BB-]	4G]	4B-]	4e-]
4r	4r	4r	4r
8F	8A-	8c	8B-
8F	8A-	8d	8B-
=41	=41	=41	=41
2AA-	2G-	2e-	2c
4AAn	4G-	4d	4c
=42	=42	=42	=42
2AA-	2G-	2e-	2c
4AAn	4G-	4d	4c
=43	=43	=43	=43
4AA-	4G-	4c	4e-
2E-	2Gn	2B-	2e-
=44	=44	=44	=44
2C	2En	2A-	2B-
4C	4E	4G	4B-
=45	=45	=45	=45
2F	2An	2c	2e-
4C	4A	4F	4e-
=46	=46	=46	=46
2C	2An	2F	2e-
4C	4A	4G	4e-
=47	=47	=47	=47
[2.BB-	[2.A-	[2.F	[2.d
=48	=48	=48	=48
4BB-]	4A-]	4F]	4d]
4r	4r	4r	4r
4BB-	4G-	4B-	4d
=49	=49	=49	=49
2E-	2B-	2Gn	2e-
4E-	4B-	4G	4e-
=50	=50	=50	=50
2BB-	2A-	2F	2d
4AA-	4G-	4E-	4c
=51	=51	=51	=51
4E-	4B-	4G	4e-
[2E-	[2G	[2B-	4e-
.	.	.	4d
=52	=52	=52	=52
4E-]	4G]	4B-]	4d-
4E-	4B-	4G	4d-
4BB-	4G	4E-	4d-
=53	=53	=53	=53
2AA-	2E-	2A-	2c
4AA-	4G-	4c	4e-
=54	=54	=54	=54
2AA-	2G-	2e-	2c
4AA-	4G-	4c	4e-
=55	=55	=55	=55
[2.E-	[2.G	[2.B-	[2.e-
=56	=56	=56	=56
4E-]	4G]	4B-]	4e-]
2r	2r	2r	4c
.	.	.	4d
=57	=57	=57	=57
2E-	2A-	2c	2e-
4F	4A-	4Bn	4d
=58	=58	=58	=58
2A-	2Bn	2d	2f
4G-	4An	4c	4e-
=59	=59	=59	=59
4E-	2B-	2e-	2.g
4E-	.	.	.
8D	4Bn	4f	.
8D-	.	.	.
=60	=60	=60	=60
4C	4B-	4en	4g
4C	4G	4e	4B-
8C	8F#	8An	8e-
8C	8G	8B-	8en
=61	=61	=61	=61
2FF	2An	4c	4e-
.	.	4d	4f
4F	4A-	4e-	4c
=62	=62	=62	=62
8BB-	2A-	2d	8f
4.F	.	.	4.b-
4BB-	4A-	4d	4g
=63	=63	=63	=63
8E-	8B-	8e-	8g
8BB-	8A-	8d	8f
[2EE-	[2G	[2B-	[2e-
=64	=64	=64	=64
2EE-]	2G]	2B-]	2e-]
==	==	==	==
*-	*-	*-	*-
